img/general/more.svg

<svg id="Слой_1" xmlns="http://www.w3.org/2000/svg" width="18.5" height="17.5" viewBox="0 0 18.5 17.5"><style>.st0{opacity:.5;fill:#fff}</style><path class="st0" d="M10.8 14.7v1.5c0 .2-.1.4-.2.5-.2.2-.3.3-.6.3H.8c-.2 0-.4-.1-.5-.2s-.3-.4-.3-.6v-1.5c0-.2.1-.4.2-.5s.3-.2.5-.2H10c.2 0 .4.1.5.2.2.1.3.3.3.5zM17 10v1.5c0 .2-.1.4-.2.5-.1.1-.3.2-.5.2H.8c-.2 0-.4-.1-.5-.2-.2 0-.3-.2-.3-.4V10c0-.2.1-.4.2-.5s.3-.2.5-.2h15.5c.2 0 .4.1.5.2s.3.3.3.5zm-3.1-4.6V7c0 .2-.1.4-.2.5-.1.1-.3.2-.5.2H.8c-.2 0-.4-.1-.5-.2C.1 7.4 0 7.2 0 7V5.4c0-.2.1-.4.2-.5.1-.2.3-.2.5-.2h12.4c.2 0 .4.1.5.2.2.1.3.3.3.5zM18.5.8v1.5c0 .2-.1.4-.2.5-.1.2-.3.3-.5.3H.8c-.2 0-.4-.1-.6-.2S0 2.5 0 2.3V.8C0 .6.1.4.2.3.4.1.6 0 .8 0h17c.2 0 .4.1.5.2.2.2.2.4.2.6z"/><path class="st0" d="M10.8 15.2v1.5c0 .2-.1.4-.2.5-.1.1-.3.2-.5.2H.8c-.2 0-.4-.1-.5-.2s-.3-.3-.3-.5v-1.5c0-.2.1-.4.2-.5s.3-.2.5-.2H10c.2 0 .4.1.5.2.2.1.3.3.3.5zm6.2-4.7V12c0 .2-.1.4-.2.5-.1.1-.3.2-.5.2H.8c-.2 0-.4-.1-.5-.2-.2 0-.3-.2-.3-.4v-1.5c0-.2.1-.4.2-.5s.3-.2.5-.2h15.5c.2 0 .4.1.5.2s.3.2.3.4zm-3.1-4.6v1.5c0 .2-.1.4-.2.5-.1.1-.3.2-.5.2H.8c-.2.1-.4.1-.6-.1-.1-.1-.2-.3-.2-.5V5.9c0-.2.1-.4.2-.5.1-.2.3-.2.5-.2h12.4c.2 0 .4.1.5.2.2.1.3.3.3.5zm4.6-4.6v1.5c0 .2-.1.4-.2.5-.1.1-.3.2-.5.2H.8c-.2 0-.4-.1-.5-.2S0 3 0 2.8V1.3C0 1.1.1.9.2.8.3.6.5.6.7.6h17c.2 0 .4.1.5.2.3.1.3.3.3.5z"/></svg>

<?xml version="1.0" encoding="utf-8"?>
<!-- Generator: Adobe Illustrator 16.2.0, SVG Export Plug-In . SVG Version: 6.00 Build 0)  -->
<!DOCTYPE svg PUBLIC "-//W3C//DTD SVG 1.1//EN" "http://www.w3.org/Graphics/SVG/1.1/DTD/svg11.dtd">
<svg version="1.1" id="Слой_1" xmlns="http://www.w3.org/2000/svg" xmlns:xlink="http://www.w3.org/1999/xlink" x="0px" y="0px"
	 width="18.5px" height="17.5px" viewBox="0 0 18.5 17.5" style="enable-background:new 0 0 18.5 17.5;" xml:space="preserve">
<style type="text/css">
<![CDATA[
	.st0{opacity:0.5;fill:#FFFFFF;}
]]>
</style>
<path class="st0" d="M10.8,14.7v1.5c0,0.2-0.1,0.4-0.2,0.5C10.4,16.9,10.3,17,10,17H0.8c-0.2,0-0.4-0.1-0.5-0.2S0,16.4,0,16.2v-1.5
	c0-0.2,0.1-0.4,0.2-0.5s0.3-0.2,0.5-0.2H10c0.2,0,0.4,0.1,0.5,0.2C10.7,14.3,10.8,14.5,10.8,14.7z M17,10v1.5c0,0.2-0.1,0.4-0.2,0.5
	c-0.1,0.1-0.3,0.2-0.5,0.2H0.8c-0.2,0-0.4-0.1-0.5-0.2C0.1,12,0,11.8,0,11.6V10c0-0.2,0.1-0.4,0.2-0.5s0.3-0.2,0.5-0.2h15.5
	c0.2,0,0.4,0.1,0.5,0.2S17,9.8,17,10z M13.9,5.4V7c0,0.2-0.1,0.4-0.2,0.5c-0.1,0.1-0.3,0.2-0.5,0.2H0.8c-0.2,0-0.4-0.1-0.5-0.2
	C0.1,7.4,0,7.2,0,7V5.4C0,5.2,0.1,5,0.2,4.9c0.1-0.2,0.3-0.2,0.5-0.2h12.4c0.2,0,0.4,0.1,0.5,0.2C13.8,5,13.9,5.2,13.9,5.4z
	 M18.5,0.8v1.5c0,0.2-0.1,0.4-0.2,0.5C18.2,3,18,3.1,17.8,3.1h-17C0.6,3.1,0.4,3,0.2,2.9S0,2.5,0,2.3V0.8c0-0.2,0.1-0.4,0.2-0.5
	C0.4,0.1,0.6,0,0.8,0h17c0.2,0,0.4,0.1,0.5,0.2C18.5,0.4,18.5,0.6,18.5,0.8z"/>
<path class="st0" d="M10.8,15.2v1.5c0,0.2-0.1,0.4-0.2,0.5c-0.1,0.1-0.3,0.2-0.5,0.2H0.8c-0.2,0-0.4-0.1-0.5-0.2S0,16.9,0,16.7v-1.5
	c0-0.2,0.1-0.4,0.2-0.5s0.3-0.2,0.5-0.2H10c0.2,0,0.4,0.1,0.5,0.2C10.7,14.8,10.8,15,10.8,15.2z M17,10.5v1.5c0,0.2-0.1,0.4-0.2,0.5
	c-0.1,0.1-0.3,0.2-0.5,0.2H0.8c-0.2,0-0.4-0.1-0.5-0.2C0.1,12.5,0,12.3,0,12.1v-1.5c0-0.2,0.1-0.4,0.2-0.5s0.3-0.2,0.5-0.2h15.5
	c0.2,0,0.4,0.1,0.5,0.2S17,10.3,17,10.5z M13.9,5.9v1.5c0,0.2-0.1,0.4-0.2,0.5c-0.1,0.1-0.3,0.2-0.5,0.2H0.8C0.6,8.2,0.4,8.2,0.2,8
	C0.1,7.9,0,7.7,0,7.5V5.9c0-0.2,0.1-0.4,0.2-0.5c0.1-0.2,0.3-0.2,0.5-0.2h12.4c0.2,0,0.4,0.1,0.5,0.2C13.8,5.5,13.9,5.7,13.9,5.9z
	 M18.5,1.3v1.5c0,0.2-0.1,0.4-0.2,0.5c-0.1,0.1-0.3,0.2-0.5,0.2h-17c-0.2,0-0.4-0.1-0.5-0.2S0,3,0,2.8V1.3c0-0.2,0.1-0.4,0.2-0.5
	c0.1-0.2,0.3-0.2,0.5-0.2h17c0.2,0,0.4,0.1,0.5,0.2C18.5,0.9,18.5,1.1,18.5,1.3z"/>
</svg>
